public/icons/tech-stack/javascript.svg

<svg width="76" height="76" viewBox="0 0 76 76" fill="none" xmlns="http://www.w3.org/2000/svg">
<g clip-path="url(#clip0_34_303)">
<path d="M0 0H76V76H0V0Z" fill="#F7DF1E"/>
<path d="M19.9832 63.511L25.799 59.9913C26.9212 61.9807 27.9419 63.6639 30.3902 63.6639C32.737 63.6639 34.2169 62.746 34.2169 59.1752V34.8914H41.3588V59.2761C41.3588 66.6734 37.0227 70.0405 30.6963 70.0405C24.9829 70.0405 21.6665 67.0816 19.9829 63.5105M45.2381 62.7457L51.0533 59.3788C52.5843 61.8788 54.5739 63.7153 58.0937 63.7153C61.0532 63.7153 62.9402 62.2357 62.9402 60.195C62.9402 57.7463 61.0016 56.8789 57.7365 55.4509L55.9514 54.685C50.7986 52.4919 47.3807 49.7369 47.3807 43.9212C47.3807 38.5643 51.4618 34.4829 57.839 34.4829C62.3794 34.4829 65.6444 36.0647 67.9909 40.1969L62.4298 43.7683C61.2052 41.5747 59.8794 40.7075 57.8387 40.7075C55.7469 40.7075 54.4205 42.0339 54.4205 43.7683C54.4205 45.9108 55.7469 46.7786 58.8077 48.105L60.5931 48.8701C66.6642 51.4722 70.0821 54.1248 70.0821 60.0931C70.0821 66.5217 65.0317 70.0414 58.2466 70.0414C51.6147 70.0414 47.3293 66.8785 45.2378 62.746" fill="black"/>
</g>
<defs>
<clipPath id="clip0_34_303">
<rect width="76" height="76" fill="white"/>
</clipPath>
</defs>
</svg>

<svg xmlns="http://www.w3.org/2000/svg" width="76" height="76" fill="none" xmlns:v="https://vecta.io/nano"><g clip-path="url(#A)"><path d="M0 0H76V76H0V0Z" fill="#f7df1e"/><path d="M19.983 63.511l5.816-3.52c1.122 1.989 2.143 3.673 4.591 3.673 2.347 0 3.827-.918 3.827-4.489V34.891h7.142v24.385c0 7.397-4.336 10.764-10.663 10.764-5.713 0-9.03-2.959-10.713-6.53m25.255-.765l5.815-3.367c1.531 2.5 3.521 4.337 7.04 4.337 2.959 0 4.846-1.48 4.846-3.52 0-2.449-1.939-3.316-5.204-4.744l-1.785-.766c-5.153-2.193-8.571-4.948-8.571-10.764 0-5.357 4.081-9.438 10.458-9.438 4.54 0 7.805 1.582 10.152 5.714l-5.561 3.571c-1.225-2.194-2.55-3.061-4.591-3.061-2.092 0-3.418 1.326-3.418 3.061 0 2.142 1.326 3.01 4.387 4.337l1.785.765c6.071 2.602 9.489 5.255 9.489 11.223 0 6.429-5.05 9.948-11.835 9.948-6.632 0-10.917-3.163-13.009-7.295" fill="#000"/></g><defs><clipPath id="A"><path fill="#fff" d="M0 0h76v76H0z"/></clipPath></defs></svg>
